!!!SOCIAL_FUNCTION:	songs connected with stories
!!!PDT:	1943
!!!OTL: No_74_I_Will_Scrape_My_Body_on_the_Rocks.krn
!!!REG: British Columbia
**kern
*staff1
=1-
*clefF4
*k[f#c#]
*M2/4
8.r
16B\
4B\
=2
(4d\
4c#\)
=3
4.c#\
8cn\
=4||
*M3/4
4B\
4r
4B\
=5||
*M2/4
2B\
=6!|:
4d\
4c#\
=7||
*M3/4
2B\
4c#\
=8
8c#\L
[8B\J
8B\]
8r
4B\
=9
2B\
8.r
16c#\
=10
8.B\L
16c#\Jk
8d\L
[8c#\J
4c#\]
=11||
*M2/4
4cn\
8c\L
[8B\J
=12
8B\]
8r
8B\L
8B\J
=13||
*M3/4
2B\
4c#\
=14
4B\
8F#\
8r
4B\
=15
(4B\
8F#\)
16r
16B\
4B\
=16
2c#\
4r
=17
4.B\
8c#\
4c#\
=18||
*M2/4
4.d\
8c#\
=19
2B\
=20
[2B\
=21
2B\]
==:|!
*-
